dist/img/icon/instagram.svg

<svg width="20" height="20" viewBox="0 0 20 20" fill="none" xmlns="http://www.w3.org/2000/svg">
<path opacity="0.5" fill-rule="evenodd" clip-rule="evenodd" d="M10 20C15.5228 20 20 15.5228 20 10C20 4.47715 15.5228 0 10 0C4.47715 0 0 4.47715 0 10C0 15.5228 4.47715 20 10 20ZM10.048 7.11383C9.47464 7.11249 8.91377 7.28155 8.43663 7.59956C7.9595 7.91757 7.58761 8.37019 7.36819 8.89995C7.14877 9.4297 7.09171 10.0127 7.20424 10.575C7.31678 11.1372 7.59385 11.6533 8.00026 12.0578C8.40668 12.4623 8.92413 12.7369 9.48691 12.8468C10.0497 12.9567 10.6324 12.8968 11.1611 12.6749C11.6898 12.453 12.1407 12.0789 12.4564 11.6003C12.7722 11.1217 12.9386 10.56 12.9345 9.9866C12.9291 9.224 12.6228 8.49436 12.0823 7.95639C11.5417 7.41842 10.8107 7.11561 10.048 7.11383ZM10.048 11.8539C9.68114 11.8553 9.32209 11.7477 9.01636 11.5448C8.71064 11.342 8.47199 11.053 8.33064 10.7144C8.1893 10.3758 8.15161 10.0029 8.22236 9.64287C8.29311 9.28286 8.46911 8.95193 8.72807 8.69201C8.98703 8.43209 9.3173 8.25487 9.67705 8.18279C10.0368 8.11071 10.4099 8.14702 10.749 8.28712C11.0881 8.42721 11.378 8.66479 11.582 8.96976C11.7859 9.27473 11.8948 9.63338 11.8948 10.0003C11.8895 10.4878 11.6929 10.9537 11.3476 11.2978C11.0022 11.6419 10.5356 11.8367 10.048 11.8402V11.8539ZM7.66086 15.8548H12.3394C13.2731 15.853 14.168 15.4813 14.8282 14.821C15.4884 14.1608 15.8601 13.2659 15.862 12.3322V7.64685C15.8601 6.71316 15.4884 5.81823 14.8282 5.15801C14.168 4.49779 13.2731 4.12608 12.3394 4.12427H7.66086C6.72717 4.12608 5.83225 4.49779 5.17203 5.15801C4.51181 5.81823 4.1401 6.71316 4.13829 7.64685V12.3322C4.1401 13.2659 4.51181 14.1608 5.17203 14.821C5.83225 15.4813 6.72717 15.853 7.66086 15.8548ZM5.95071 5.93669C6.40441 5.48299 7.01924 5.22731 7.66086 5.2255H12.3394C12.981 5.22731 13.5958 5.48299 14.0495 5.93669C14.5032 6.39039 14.7589 7.00522 14.7607 7.64685V12.3322C14.7589 12.9732 14.503 13.5873 14.0491 14.0399C13.5952 14.4925 12.9804 14.7467 12.3394 14.7467H7.66086C7.01987 14.7467 6.40503 14.4925 5.95113 14.0399C5.49724 13.5873 5.24133 12.9732 5.23952 12.3322V7.64685C5.24133 7.00522 5.49701 6.39039 5.95071 5.93669Z" fill="white"/>
</svg>

<svg width="20" height="20" viewBox="0 0 20 20" fill="none" xmlns="http://www.w3.org/2000/svg"><path opacity=".5" fill-rule="evenodd" clip-rule="evenodd" d="M10 20c5.523 0 10-4.477 10-10S15.523 0 10 0 0 4.477 0 10s4.477 10 10 10zm.048-12.886a2.893 2.893 0 10-.013 5.786 2.893 2.893 0 00.013-5.786zm0 4.74A1.853 1.853 0 1111.895 10a1.86 1.86 0 01-1.847 1.84v.014zm-2.387 4h4.678a3.529 3.529 0 003.523-3.522V7.647a3.53 3.53 0 00-3.523-3.523H7.661a3.53 3.53 0 00-3.523 3.523v4.685a3.53 3.53 0 003.523 3.523zM5.95 5.938a2.428 2.428 0 011.71-.712h4.678a2.428 2.428 0 012.422 2.422v4.685a2.421 2.421 0 01-2.422 2.415H7.661a2.421 2.421 0 01-2.421-2.415V7.647a2.428 2.428 0 01.71-1.71z" fill="#fff"/></svg>
